X: 202
T: The Wheelwright
B: O'Neill's 202
N: "Slow"
N: "Collected by F.O'Neill"
Z: 1997 by John Chambers <jc@trillian.mit.edu>
M: 2/4
L: 1/8
K:A
(E>G) \
| ~A>B cf | {def}e>d cA/B/ | {B}c>B (~B/A/F/E/) | (~F>A) A :|
e \
| (f>e) (fg) | (a>g) fa | ({fga}g>e) cB | ({B}cf) fe |
| ({g}f>e) (fg) | (a>g) (fa) | ({fga}g>e) (cB) | (~ce) e E/>G/ |
| | ~A>B (cf) | ({def}e>d) .c(A/B/) | ({AB}c>B) (~B/A/F/E/) | (~FA) A2 ||


